packages/assets/files/common/colors/icons/bus-ticket.svg

<?xml version="1.0" encoding="iso-8859-1"?>
<svg version="1.1" id="Layer_1" xmlns="http://www.w3.org/2000/svg" xmlns:xlink="http://www.w3.org/1999/xlink" x="0px" y="0px"
	 viewBox="0 0 512 512" style="enable-background:new 0 0 512 512;" xml:space="preserve">
<path style="fill:#78B9EB;" d="M496.298,328.695l6.058-10.24l-8.077-10.238l8.077-10.238l-8.077-10.239l8.077-10.241l-8.077-10.239
	l8.077-10.24l-8.077-10.238l8.077-10.238l-8.077-10.24l8.077-10.244l-8.077-10.241l8.077-10.248l-6.058-10.248
	c-25.093,0-45.434-20.341-45.434-45.434H61.138c0,25.093-20.341,45.434-45.434,45.434l-6.058,10.248l8.077,10.248l-8.077,10.241
	l8.077,10.244l-8.077,10.24l8.077,10.238l-8.077,10.238l8.077,10.24L9.645,277.5l8.077,10.241l-8.077,10.239l8.077,10.238
	l-8.077,10.238l6.058,10.24c24.415,0,44.326,19.26,45.383,43.415h389.828C451.972,347.955,471.882,328.695,496.298,328.695z"/>
<path style="fill:#FFFFFF;" d="M90.388,342.167c-3.631-6.405-8.057-12.283-13.148-17.511l-0.107-135.293
	c5.624-5.769,10.445-12.326,14.28-19.485h329.174c3.835,7.159,8.656,13.716,14.281,19.485l-0.107,135.293
	c-5.091,5.228-9.518,11.105-13.148,17.511H90.388z"/>
<path style="fill:#E0E0E0;" d="M233.788,328.695V223.691c0-22.269,18.117-40.386,40.386-40.386h68.656
	c22.269,0,40.386,18.117,40.386,40.386v105.004H233.788z"/>
<path style="fill:#FFC853;" d="M363.024,308.502H253.981v-84.811c0-11.153,9.04-20.193,20.193-20.193h68.656
	c11.153,0,20.193,9.04,20.193,20.193V308.502z"/>
<rect x="253.978" y="254.482" width="109.042" height="15.145"/>
<rect x="300.927" y="205.514" width="15.145" height="56.541"/>
<path style="fill:#78B9EB;" d="M363.024,262.058H253.981v-38.367c0-11.153,9.04-20.193,20.193-20.193h68.656
	c11.153,0,20.193,9.04,20.193,20.193V262.058z"/>
<path d="M503.924,246.782L512,236.545l-8.078-10.243l8.077-10.244l-8.078-10.242l7.594-9.634l-10.897-18.432h-4.319
	c-20.878,0-37.862-16.984-37.862-37.862v-7.572H53.565v7.572c0,20.878-16.984,37.862-37.862,37.862h-4.32L0.486,196.184l7.594,9.634
	L0.001,216.06l8.077,10.244L0,236.545l8.077,10.237L0,257.019l8.077,10.242L0,277.501l8.077,10.241L0,297.981l8.077,10.239
	l-7.594,9.624l10.901,18.425h4.318c20.319,0,36.93,15.889,37.819,36.174l0.317,7.241h404.324l0.317-7.241
	c0.887-20.285,17.499-36.174,37.818-36.174h4.318l10.901-18.425l-7.594-9.624L512,297.981l-8.077-10.24L512,277.501l-8.077-10.24
	L512,257.019L503.924,246.782z M492.712,216.061l-8.077,10.244l8.076,10.238l-8.078,10.239l8.078,10.238l-8.077,10.24l8.077,10.24
	l-8.077,10.241l8.077,10.24l-8.077,10.239l8.561,10.851l-1.322,2.234c-23.983,1.969-43.466,19.803-47.714,43.234H182.801v-11.611
	h-15.145v11.611H67.843c-4.249-23.431-23.732-41.266-47.714-43.234l-1.322-2.234l8.561-10.851L19.29,297.98l8.077-10.24L19.29,277.5
	l8.077-10.24l-8.077-10.24l8.077-10.239l-8.077-10.239l8.076-10.239l-8.077-10.244l8.076-10.24l-8.561-10.863l1.328-2.246
	c24.646-2.048,44.56-21.032,48.039-45.251h99.485v8.582h15.145v-8.582h261.03c3.479,24.219,23.393,43.203,48.039,45.251l1.327,2.246
	l-8.561,10.863L492.712,216.061z"/>
<path d="M84.738,166.302c-3.479,6.497-7.862,12.476-13.027,17.774l-2.153,2.209l0.112,141.451l2.146,2.203
	c4.663,4.788,8.695,10.159,11.986,15.963l2.176,3.839h69.058v-15.145h-60.36c-2.903-4.59-6.205-8.924-9.866-12.944l-0.102-129.285
	c4.194-4.6,7.915-9.595,11.111-14.916h59.215v-15.145H86.879L84.738,166.302z"/>
<path d="M427.263,166.302l-2.14-3.997H195.421v15.145h220.76c3.197,5.322,6.918,10.317,11.112,14.916l-0.104,129.285
	c-3.662,4.021-6.965,8.355-9.865,12.944H195.421v15.145h230.603l2.176-3.839c3.286-5.8,7.319-11.17,11.985-15.963l2.146-2.203
	l0.112-141.452l-2.154-2.208C435.125,178.779,430.742,172.799,427.263,166.302z"/>
<rect x="167.653" y="231.765" width="15.145" height="15.145"/>
<rect x="167.653" y="292.344" width="15.145" height="15.145"/>
<rect x="167.653" y="201.476" width="15.145" height="15.145"/>
<rect x="167.653" y="262.055" width="15.145" height="15.145"/>
<rect x="167.653" y="322.634" width="15.145" height="15.145"/>
<rect x="167.653" y="171.186" width="15.145" height="15.145"/>
<path d="M342.831,195.926h-68.656c-15.309,0-27.765,12.456-27.765,27.765v0.505h-26.251V256h15.145v-16.659h11.106v76.734h22.212
	v12.621h15.145v-12.621h49.473v12.621h15.145v-12.621h22.212v-76.734h11.106V256h15.145v-31.804h-26.251v-0.505
	C370.596,208.382,358.14,195.926,342.831,195.926z M355.451,223.691v30.794h-39.376V211.07h26.756
	C349.789,211.07,355.451,216.732,355.451,223.691z M274.174,211.07h26.756v43.415h-39.376v-30.794
	C261.554,216.732,267.215,211.07,274.174,211.07z M261.554,300.93V269.63h93.898v31.299H261.554z"/>
<rect x="272.657" y="277.704" width="15.145" height="15.145"/>
<rect x="329.197" y="277.704" width="15.145" height="15.145"/>
<g>
</g>
<g>
</g>
<g>
</g>
<g>
</g>
<g>
</g>
<g>
</g>
<g>
</g>
<g>
</g>
<g>
</g>
<g>
</g>
<g>
</g>
<g>
</g>
<g>
</g>
<g>
</g>
<g>
</g>
</svg>

<svg width="512" height="512" viewBox="0 0 512 512" fill="none" xmlns="http://www.w3.org/2000/svg">
  <path d="M496.298 328.695L502.356 318.455L494.279 308.217L502.356 297.979L494.279 287.74L502.356 277.499L494.279 267.26L502.356 257.02L494.279 246.782L502.356 236.544L494.279 226.304L502.356 216.06L494.279 205.819L502.356 195.571L496.298 185.323C471.205 185.323 450.864 164.982 450.864 139.889H61.138C61.138 164.982 40.797 185.323 15.704 185.323L9.64602 195.571L17.723 205.819L9.64602 216.06L17.723 226.304L9.64602 236.544L17.723 246.782L9.64602 257.02L17.723 267.26L9.64502 277.5L17.722 287.741L9.64502 297.98L17.722 308.218L9.64502 318.456L15.703 328.696C40.118 328.696 60.029 347.956 61.086 372.111H450.914C451.972 347.955 471.882 328.695 496.298 328.695Z" fill="#78B9EB"/>
  <path d="M90.3881 342.167C86.7571 335.762 82.3311 329.884 77.2401 324.656L77.1331 189.363C82.7571 183.594 87.5781 177.037 91.4131 169.878H420.587C424.422 177.037 429.243 183.594 434.868 189.363L434.761 324.656C429.67 329.884 425.243 335.761 421.613 342.167H90.3881Z" fill="white"/>
  <path d="M233.788 328.695V223.691C233.788 201.422 251.905 183.305 274.174 183.305H342.83C365.099 183.305 383.216 201.422 383.216 223.691V328.695H233.788Z" fill="#E0E0E0"/>
  <path d="M363.024 308.502H253.981V223.691C253.981 212.538 263.021 203.498 274.174 203.498H342.83C353.983 203.498 363.023 212.538 363.023 223.691V308.502H363.024Z" fill="#FFC853"/>
  <path d="M363.02 254.482H253.978V269.627H363.02V254.482Z" fill="black"/>
  <path d="M316.072 205.514H300.927V262.055H316.072V205.514Z" fill="black"/>
  <path d="M363.024 262.058H253.981V223.691C253.981 212.538 263.021 203.498 274.174 203.498H342.83C353.983 203.498 363.023 212.538 363.023 223.691V262.058H363.024Z" fill="#78B9EB"/>
  <path d="M503.924 246.782L512 236.545L503.922 226.302L511.999 216.058L503.921 205.816L511.515 196.182L500.618 177.75H496.299C475.421 177.75 458.437 160.766 458.437 139.888V132.316H53.565V139.888C53.565 160.766 36.581 177.75 15.703 177.75H11.383L0.486 196.184L8.08 205.818L0.001 216.06L8.078 226.304L0 236.545L8.077 246.782L0 257.019L8.077 267.261L0 277.501L8.077 287.742L0 297.981L8.077 308.22L0.483 317.844L11.384 336.269H15.702C36.021 336.269 52.632 352.158 53.521 372.443L53.838 379.684H458.162L458.479 372.443C459.366 352.158 475.978 336.269 496.297 336.269H500.615L511.516 317.844L503.922 308.22L512 297.981L503.923 287.741L512 277.501L503.923 267.261L512 257.019L503.924 246.782ZM492.712 216.061L484.635 226.305L492.711 236.543L484.633 246.782L492.711 257.02L484.634 267.26L492.711 277.5L484.634 287.741L492.711 297.981L484.634 308.22L493.195 319.071L491.873 321.305C467.89 323.274 448.407 341.108 444.159 364.539H182.801V352.928H167.656V364.539H67.843C63.594 341.108 44.111 323.273 20.129 321.305L18.807 319.071L27.368 308.22L19.29 297.98L27.367 287.74L19.29 277.5L27.367 267.26L19.29 257.02L27.367 246.781L19.29 236.542L27.366 226.303L19.289 216.059L27.365 205.819L18.804 194.956L20.132 192.71C44.778 190.662 64.692 171.678 68.171 147.459H167.656V156.041H182.801V147.459H443.831C447.31 171.678 467.224 190.662 491.87 192.71L493.197 194.956L484.636 205.819L492.712 216.061Z" fill="black"/>
  <path d="M84.7381 166.302C81.2591 172.799 76.8761 178.778 71.7111 184.076L69.5581 186.285L69.6701 327.736L71.8161 329.939C76.4791 334.727 80.5111 340.098 83.8021 345.902L85.9781 349.741H155.036V334.596H94.6761C91.7731 330.006 88.4711 325.672 84.8101 321.652L84.7081 192.367C88.9021 187.767 92.6231 182.772 95.8191 177.451H155.034V162.306H86.8791L84.7381 166.302Z" fill="black"/>
  <path d="M427.263 166.302L425.123 162.305H195.421V177.45H416.181C419.378 182.772 423.099 187.767 427.293 192.366L427.189 321.651C423.527 325.672 420.224 330.006 417.324 334.595H195.421V349.74H426.024L428.2 345.901C431.486 340.101 435.519 334.731 440.185 329.938L442.331 327.735L442.443 186.283L440.289 184.075C435.125 178.779 430.742 172.799 427.263 166.302Z" fill="black"/>
  <path d="M182.798 231.765H167.653V246.91H182.798V231.765Z" fill="black"/>
  <path d="M182.798 292.344H167.653V307.489H182.798V292.344Z" fill="black"/>
  <path d="M182.798 201.476H167.653V216.621H182.798V201.476Z" fill="black"/>
  <path d="M182.798 262.055H167.653V277.2H182.798V262.055Z" fill="black"/>
  <path d="M182.798 322.634H167.653V337.779H182.798V322.634Z" fill="black"/>
  <path d="M182.798 171.186H167.653V186.331H182.798V171.186Z" fill="black"/>
  <path d="M342.831 195.926H274.175C258.866 195.926 246.41 208.382 246.41 223.691V224.196H220.159V256H235.304V239.341H246.41V316.075H268.622V328.696H283.767V316.075H333.24V328.696H348.385V316.075H370.597V239.341H381.703V256H396.848V224.196H370.597V223.691C370.596 208.382 358.14 195.926 342.831 195.926ZM355.451 223.691V254.485H316.075V211.07H342.831C349.789 211.07 355.451 216.732 355.451 223.691ZM274.174 211.07H300.93V254.485H261.554V223.691C261.554 216.732 267.215 211.07 274.174 211.07ZM261.554 300.93V269.63H355.452V300.929H261.554V300.93Z" fill="black"/>
  <path d="M287.802 277.704H272.657V292.849H287.802V277.704Z" fill="black"/>
  <path d="M344.342 277.704H329.197V292.849H344.342V277.704Z" fill="black"/>
</svg>
